logo/gnome.svg

<?xml version="1.0" encoding="UTF-8"?>
<svg width="512px" height="187px" viewBox="0 0 512 187" version="1.1" xmlns="http://www.w3.org/2000/svg" xmlns:xlink="http://www.w3.org/1999/xlink" preserveAspectRatio="xMidYMid">
    <title>GNOME</title>
    <g>
        <path d="M124.609731,80.8753429 C130.887934,118.179421 35.6430768,131.801344 71.5070561,159.106569 C82.7728815,167.684209 94.2763626,161.113265 92.5340787,147.807692 C91.0798145,136.707124 131.548964,129.985087 128.379171,146.761063 C124.228853,168.760743 102.045029,186.126923 82.8122285,186.126923 C43.7170758,186.126923 6.24931387,140.663856 13.5725726,107.894123 C24.3914163,59.4438335 119.398618,49.9108487 124.609731,80.8753429 Z M197.321282,65.1724897 C201.604393,65.1724897 205.700658,65.647896 209.610207,66.5984505 C213.548412,67.5491341 217.256659,68.9581852 220.734947,70.825475 L216.26809,84.0310056 C214.312638,82.9605346 212.073787,81.9055533 209.99829,81.1638523 C206.462495,79.9755947 202.912373,79.3814336 199.347923,79.381369 C192.736251,79.3814336 187.633797,81.5713619 184.040626,85.9510895 C180.476047,90.2969978 178.693822,96.5271701 178.693822,104.641671 C178.693822,112.688339 180.418541,118.901602 183.868174,123.281394 C187.317613,127.661186 192.501646,129.85105 198.571693,129.85105 C204.738421,129.85105 208.557936,128.296653 210.595032,126.658805 L210.595032,113.503165 L197.235056,113.503165 L197.235056,100.363724 L223.106493,100.363724 L223.106493,136.93006 C214.896601,143.824714 202.858575,144.053131 197.162881,144.059866 L196.415777,144.060015 C185.693448,144.060015 177.198996,140.528975 170.932423,133.466939 C164.665721,126.370954 161.532467,116.762596 161.532467,104.641671 C161.532467,92.3850165 164.723227,82.7427099 171.104876,75.7145573 C177.486525,68.6865982 186.225262,65.1724897 197.321282,65.1724897 Z M334.445997,65.1790083 C344.794379,65.1790728 352.905523,68.6728511 358.76975,75.6668617 C364.633848,82.661066 367.563412,92.3250583 367.563412,104.649674 C367.563412,116.940276 364.633848,126.577807 358.76975,133.571882 C352.905523,140.566086 344.794443,144.059736 334.445997,144.059736 C324.126014,144.059736 316.035264,140.566086 310.142382,133.571882 C304.278284,126.577807 301.328583,116.940276 301.328583,104.649674 C301.328583,92.3250583 304.278155,82.661066 310.142382,75.6668617 C315.805177,68.9460516 323.505391,65.4416241 333.256062,65.1790083 C333.652406,65.1683591 334.042877,65.1790083 334.445997,65.1790083 Z M399.588605,66.5475279 L414.249075,114.015811 L428.995771,66.5475279 L446.854037,66.5475279 L454.921616,142.583046 L439.226237,142.583046 L434.385689,95.0372495 L419.552766,142.811068 L409.031674,142.811068 L394.198687,93.4237335 L389.358139,142.583046 L373.619647,142.583046 L381.687226,66.5475279 L399.588605,66.5475279 Z M244.927295,66.5475279 L278.02212,112.243719 L278.02212,66.5475279 L292.147032,66.5475279 L292.147032,142.583046 L281.673442,142.583046 L248.578682,96.886855 L248.578682,142.583046 L234.453705,142.583046 L234.453705,66.5475279 L244.927295,66.5475279 Z M511.051382,66.5475279 L511.051382,81.3676071 L482.851448,81.3676071 L482.851448,97.1390798 L504.529163,97.1390798 L504.529163,110.345579 L482.851448,110.345579 L482.851448,127.763031 L512,127.763031 L512,142.583046 L466.250692,142.583046 L466.250692,66.5475279 L511.051382,66.5475279 Z M334.213224,79.3763268 L333.982144,79.3779484 C329.149535,79.5116766 325.388687,81.717611 322.687532,85.9933636 C319.899248,90.4071687 318.492391,96.6370182 318.492391,104.649674 C318.492391,112.628381 319.899119,118.811632 322.687532,123.225244 C325.475946,127.639113 329.386592,129.860795 334.445997,129.860795 C339.533865,129.860795 343.476588,127.639113 346.265002,123.225244 C349.053222,118.811632 350.460143,112.628381 350.460143,104.649674 C350.460143,96.6369537 349.053351,90.4071687 346.265002,85.9933636 C343.476459,81.5796876 339.533929,79.3780129 334.445997,79.3779484 L334.213224,79.3763268 Z M18.0172067,76.259156 C9.76850717,79.8885208 -8.96694766,56.4865149 5.05316588,46.7992901 C19.0795749,37.1136391 26.2659062,72.6282173 18.0172067,76.259156 Z M41.2586769,57.6700719 C31.4471156,59.6751937 16.5912723,29.8423185 34.1053971,22.6150664 C51.6163741,15.3893882 51.0781075,55.6680979 41.2586769,57.6700719 Z M135.464774,-3.55271368e-15 C174.186918,-3.55271368e-15 133.042575,55.1502917 111.263238,55.1502917 C89.4807535,55.1502917 96.7442048,-3.55271368e-15 135.464774,-3.55271368e-15 Z M71.170246,48.3165094 C59.5676105,47.6082639 51.904394,9.7124069 73.6947478,6.88414646 C95.4929711,4.05588601 82.7681599,49.0247549 71.170246,48.3165094 Z" fill="#000000"></path>
    </g>
</svg>

<svg viewBox="0 0 512 187" xmlns="http://www.w3.org/2000/svg"><path d="M124.6 80.87c6.27 37.3-88.97 50.92-53.11 78.23 11.26 8.57 22.76 2 21.02-11.3 -1.46-11.11 39.01-17.83 35.84-1.05 -4.16 21.99-26.34 39.36-45.57 39.36 -39.1 0-76.57-45.47-69.24-78.24 10.81-48.46 105.82-57.99 111.03-27.02Zm72.71-15.71c4.28 0 8.37.47 12.28 1.42 3.93.95 7.64 2.35 11.12 4.22L216.24 84c-1.96-1.08-4.2-2.13-6.27-2.87 -3.54-1.19-7.09-1.79-10.66-1.79 -6.62 0-11.72 2.18-15.31 6.56 -3.57 4.34-5.35 10.57-5.35 18.69 0 8.04 1.72 14.25 5.17 18.63 3.44 4.37 8.63 6.56 14.7 6.56 6.16 0 9.98-1.56 12.02-3.2v-13.16h-13.36v-13.14h25.87v36.56c-8.21 6.89-20.25 7.12-25.95 7.12l-.75 0c-10.73 0-19.22-3.54-25.49-10.6 -6.27-7.1-9.4-16.71-9.4-28.83 0-12.26 3.19-21.9 9.57-28.93 6.38-7.03 15.12-10.55 26.21-10.55Zm137.12 0c10.34 0 18.45 3.49 24.32 10.48 5.86 6.99 8.79 16.65 8.79 28.98 0 12.29-2.93 21.92-8.8 28.92 -5.87 6.99-13.98 10.48-24.33 10.48 -10.32 0-18.42-3.5-24.31-10.49 -5.87-7-8.82-16.64-8.82-28.93 0-12.33 2.94-21.99 8.81-28.99 5.66-6.73 13.36-10.23 23.11-10.49 .39-.02.78 0 1.18 0Zm65.14 1.36l14.66 47.46 14.74-47.47h17.85l8.06 76.03h-15.7l-4.85-47.55 -14.84 47.77h-10.53l-14.84-49.39 -4.85 49.15h-15.74l8.06-76.04h17.9Zm-154.67 0l33.09 45.69v-45.7h14.12v76.03h-10.48l-33.1-45.7v45.69H234.4V66.49h10.47Zm266.12 0v14.82h-28.2v15.77h21.67v13.2h-21.68v17.41h29.14v14.82H466.2V66.5H511ZM334.18 79.34l-.24 0c-4.84.13-8.6 2.33-11.3 6.61 -2.79 4.41-4.2 10.64-4.2 18.65 0 7.97 1.4 14.16 4.19 18.57 2.78 4.41 6.69 6.63 11.75 6.63 5.08 0 9.03-2.23 11.81-6.64 2.78-4.42 4.19-10.6 4.19-18.58 0-8.02-1.41-14.25-4.2-18.66 -2.79-4.42-6.74-6.62-11.82-6.62l-.24-.01Zm-316.2-3.12C9.73 79.84-9.01 56.44 5.01 46.76c14.02-9.69 21.21 25.82 12.96 29.45Zm23.24-18.59c-9.82 2-24.67-27.83-7.16-35.06 17.51-7.23 16.97 33.05 7.15 35.05Zm94.2-57.68c38.72 0-2.43 55.15-24.21 55.15 -21.79 0-14.52-55.16 24.2-55.16Zm-64.3 48.31c-11.61-.71-19.27-38.61 2.52-41.44 21.79-2.83 9.07 42.14-2.53 41.43Z"/></svg>
